X:1
T:Title
%%score { ( 1 3 ) | ( 2 4 ) }
L:1/8
Q:1/4=100
M:6/4
K:Db
V:1 treble nm="Grand Piano"
V:3 treble 
V:2 bass 
V:4 bass 
V:1
 [A,DF]2 [A,EG]2 [A,FA]2 [A,DF]4[K:bass] [G,CE]2 | [F,D]2[K:treble] [A,DF]2 [A,EG]2 [DFA]6 | %2
w: Haldor~Lillenas * * * *||
 [A,DF]2 [A,EG]2 [A,FA]2 [A,DF]4[K:bass] [G,CE]2 | [F,D]2[K:treble] [A,DF]2 [A,EG]2 [DFA]6 | %4
w: ||
 [Fd]2 [Fd]2 [Fd]2 [Ac]2 [Ac]2 [Ac]2 | B2 B2 B2 [FA]6 | =G2 F2 E2 G4 B2 | %7
w: |||
[M:15/8] A3- A =G2 _G3- G6 |[M:6/4] F2 [A,EG]2 [A,FA]2 [A,DF]4[K:bass] [G,CE]2 | %9
w: ||
 [F,D]2[K:treble] [A,DF]2 [A,EG]2 [DFA]6 | [A,DF]2 [A,EG]2 [A,FA]2 [A,DF]4[K:bass] [G,CE]2 | %11
w: ||
 [F,D]2[K:treble] [A,DF]2 [A,EG]2 [DFA]6 | z6 .[_FB]6 | z6 .[_FB]6 | %14
w: |||
 [=GB]2 [Gc]2 [Gd]2 [Ge]4 [Fd]2 | [Fd]12 | .[Fd]12 | .[Gc]6 [GA]6 | .e12 | .[Fd]6 [FA]6 | %20
w: ||||||
 .[Af]12[K:bass][K:treble] |[M:7/4] [dg]4 B2 B6 =A2 |[M:15/8] A2 d-d f2 a6 [EGc]3 |[M:6/4] d12 |] %24
w: ||||
V:2
 D,2 D,2 D,2 D,4 A,,2 | D,2 D,2 D,2 D,6 | D,2 D,2 D,2 D,4 A,,2 | D,2 D,2 D,2 D,6 | %4
 [D,A,]2 [D,A,]2 [D,A,]2 [F,D]2 [F,D]2 [F,D]2 | [G,DG]2 [G,DG]2 [G,DG]2 [D,D]6 | %6
 [E,B,D]2 [E,A,D]2 [E,=G,D]2 [E,B,D]4 [E,G,D]2 | %7
[M:15/8] [E,A,C]3- [E,A,C] [_F,B,D]2 [E,A,C]3- [E,A,C]6 |[M:6/4] [D,A,D]2 D,2 D,2 D,4 A,,2 | %9
 D,2 D,2 D,2 D,6 | D,2 D,2 D,2 D,4 A,,2 | D,2 D,2 D,2 D,6 | %12
 [D,A,]2 [D,A,]2 [D,A,]2 .[D,=G,]4 [D,D]2 | [D,A,]2 [D,A,]2 [D,A,]2 .[D,=G,]4 [D,D]2 | %14
 [E,D]2 [E,C]2 [E,B,]2 [A,,C]4 [D,D]2 | [D,A,]12 | [D,D]2 F,2 B,2 A,2 [F,A,F]2 [D,A,]2 | %17
 [A,C]2 A,2 A,2 A,2 B,2[K:treble] C2 | .G12[K:bass] | [D,D]2 D,2 D,2 D,2 D,2 D,2 | %20
 .[D,D]6 z2[K:treble] [A,CG]2 [B,DF]2 |[M:7/4] [G,B,G]4 [G,DG]2 [G,DG]6 [=G,D_F]2 | %22
[M:15/8] [A,DF]2 [A,DF]-[A,DF] [A,DA]2[K:bass] [A,,CAe]6 A,,3 |[M:6/4] z2 A,2 B,2 .A,6 |] %24
V:3
 x10[K:bass] x2 | x2[K:treble] x10 | x10[K:bass] x2 | x2[K:treble] x10 | x12 | x12 | x12 | %7
[M:15/8] x15 |[M:6/4] x10[K:bass] x2 | x2[K:treble] x10 | x10[K:bass] x2 | x2[K:treble] x10 | %12
 [Fd]2 [Fd]2 [FA]2 z2 A,2 [=FA]2 | [Fd]2 [Fd]2 [FA]2 z2 A,2 [=FA]2 | x12 | x12 | %16
 z2 D2 D2 D2 e2 [Fd]2 | z2 E2 [DGB]2 C2 D2 E2 | z2 E2 D2 C2 f2 e2 | z2 A,2 [DGB]2 D2 D2 D2 | %20
 z2[K:bass] F,2 A,2[K:treble] D2 e2 d2 |[M:7/4] x14 |[M:15/8] x15 |[M:6/4] [DF]2 F2 G2 .F6 |] %24
V:4
 x12 | x12 | x12 | x12 | x12 | x12 | x12 |[M:15/8] x15 |[M:6/4] x12 | x12 | x12 | x12 | x12 | x12 | %14
 x12 | x12 | x12 | x10[K:treble] x2 | [A,C]2 C2 B,2 A,2[K:bass] [A,,CA]2 [A,,CG]2 | x12 | %20
 x8[K:treble] x4 |[M:7/4] x14 |[M:15/8] x6[K:bass] x9 |[M:6/4] D,12 |] %24

